X: 7
T: Trim The Velvet
R: reel
M: 4/4
L: 1/8
K: Gmaj
~G3B AGFA|G2Bd cAFA|~G3B AGFA|defd cAFA|
~G3B ~A3c|BcdB cAFA|~G3B AGFA|defd cAFA||
dgeg dg~g2|defd cAFA|dgeg dg~g2|defd cAFA|
d3e dBGB|dedB cAFA|dgeg dg~g2|defd cAFA||
~g3a bgaf|g2ab c'baf|g2bg faaf|defd cAFA|
~g3a bgaf|g2ab c'bag|bg~g2 af~f2|defd cAFA||
~B2BA AG~G2|~B2dB cAFA|BGdG BG~G2|defd cAFA|
B2Bc BAGE|DGBd cAFA|~B3G c2Ac|defd cAFA||

